X:5064
T:The Skinful
M:6/8
L:1/8
Q:180
C:Aidan Crossey
R:Jig
K:A
|:E2A cBA|G2AB2c|E2A cBA|dcd B3|
E2A cBA|G2A B2c|d2e fed|c2B A3:||
|:a2e cBA|Bcd efg|a2e cBA|dcd B3|
a2e cBA|Bcd efg|a2e fed|c2B A3:||
